resources/haticons/SVG/adobelightroomclassic.svg

<!-- Generated by IcoMoon.io -->
<svg version="1.1" xmlns="http://www.w3.org/2000/svg" width="24" height="24" viewBox="0 0 24 24">
<title>adobelightroomclassic</title>
<path fill="#add5ec" d="M0 0.3v23.4h24v-23.4zM1 1.3h22v21.4h-22zM6.648 16.625c-0.116 0-0.148-0.050-0.148-0.148v-10.744c0-0.083 0.033-0.132 0.116-0.132h1.584c0.084 0 0.1 0.037 0.1 0.12v9.26h4.125c0.083 0 0.106 0.033 0.090 0.116l-0.248 1.42c-0.016 0.082-0.066 0.115-0.148 0.115zM14.050 10.149c0-0.12 0-0.416-0.050-0.977 0-0.083 0.018-0.1 0.084-0.132 0.61-0.246 2.058-0.692 3.675-0.692 0.080 0 0.112 0.017 0.112 0.1v1.452c0 0.084-0.033 0.1-0.116 0.1-0.628-0.033-1.564 0.050-1.91 0.198v6.31c0 0.082-0.033 0.115-0.116 0.115h-1.57c-0.080 0-0.114-0.033-0.114-0.116z"></path>
</svg>

<svg xmlns="http://www.w3.org/2000/svg" width="24" height="24"><path fill="#add5ec" d="M0 .3v23.4h24V.3zm1 1h22v21.4H1zm5.648 15.325c-.116 0-.148-.05-.148-.148V5.733c0-.083.033-.132.116-.132H8.2c.084 0 .1.037.1.12v9.26h4.125c.083 0 .106.033.09.116l-.248 1.42c-.016.082-.066.115-.148.115zm7.402-6.476c0-.12 0-.416-.05-.977 0-.083.018-.1.084-.132.61-.246 2.058-.692 3.675-.692.08 0 .112.017.112.1V9.9c0 .084-.033.1-.116.1-.628-.033-1.564.05-1.91.198v6.31c0 .082-.033.115-.116.115h-1.57c-.08 0-.114-.033-.114-.116z"/></svg>
